X:1
T:Title
%%score ( 1 2 ) { 3 | 4 }
L:1/8
Q:1/4=100
M:6/8
K:Db
V:1 treble nm="Grand Piano, Soprano"
V:2 treble 
V:3 bass nm="Choir Pad, Hid Away with Jesus"
V:4 bass 
V:1
 [FA] [FA]2 [DF] [FA]2 | [Fd] [DF]2 D [DF]2 | [FA] [EG]2 [DF] [CE]2 | [GB] [FA]2- [FA] [DF]2 | %4
w: By~Barney~Elliott~Warren * * *||||
 [FA] [FA]2 [DF] [FA]2 | [Fd] [DF]2 D [DF]2 | [FA] [EG]2 [DF] [CE]2 | [EG] [DF]2- [DF] D2 | %8
w: ||||
 [FA] [GA]2 [GB] [Gc]2 | A [Ad]2 [Ae] [Af]2 | [Ad] [Ge]2 [GA] [EG]2 | [CG] [DF]2 [EG] [FA]2 | %12
w: ||||
 [FA] [GB]2 [Gd] [Gd]2 | [GB] [FA]2 [DF] [FA]2 | [Ad] [Gc]2 [GA] [GB]2 | [Gc] [Fd]2- [Fd] [Fd]2 | %16
w: ||||
 [DF] [CE]2 [DF] [EG]2 | [EG] [DF]2 [EG] [FA]2 | [FA] [FB]2 [FB] [EA]2 | [D=G] A2- A-[_G-A]>G | %20
w: ||||
 [GA] [Fd]2 [Gd] [Ad]2 | [FA] [Ac]2 [GB] [FA]2 | [EG] [DF]2- [DF] [CE]2 | [CE] D2- D3- | D3 z3 |] %25
w: |||||
V:2
 x6 | x6 | x6 | x6 | x6 | x6 | x6 | x6 | x6 | x6 | x6 | x6 | x6 | x6 | x6 | x6 | x6 | x6 | x6 | %19
 z C2- C z z | x6 | x6 | x6 | x6 | x6 |] %25
V:3
 A, A,2 A, D2 | A, A,2 F, A,2 | A, A,2 A, A,2 | C D2- D A,2 | A,[K:bass] A,2 A, D2 | %5
 A, A,2 F, A,2 | A, A,2 A, A,2 | A, A,2- A, F,2 | D C2 D E2 | C D2 C D2 | D C2 C C2 | %11
 A, A,2 A, D2 | D D2 B, B,2 | D D2 D D2 | D E2 C[K:bass] A,2 | A, A,2- A, A,2 | A, A,2 A, A,2 | %17
 A, A,2 A,[K:treble] D2 | D D2 D C2 | B, A,2- A, C2 | C D2 A, A,2 | D D2 D D2 | %22
 B,[K:bass] A,2- A,/ z/ G,2 | G, F,2- F,3- | F,3 z3 |] %25
V:4
 D, D,2 D, D,2 | D, D,2 D, D,2 | D, A,,2 A,, A,,2 | A,, D,2- D, D,2 | D, D,2 D, D,2 | %5
 D, D,2 D, D,2 | D, A,,2 A,, A,,2 | A,, D,2- D, D,2 | D, A,2 A, A,2 | G, F,2 E, D,2 | %10
 F, A,2 A, A,,2 | A,, D,2 D, D,2 | D, G,2 G, G,2 | G, D,2 D, D,2 | F, A,2 A, A,,2 | %15
 A,, D,2- D, D,2 | D, A,,2 A,, A,,2 | A,, D,2 D, D,2 | D,/C,/ B,,2 B,, E,2 | %19
 E, A,,2- A,,2- A,,/ z/ | A, D,2 E, F,2 | D, G,2 G, G,2 | .G,3 z A,,2 | A,, D,2- D,3- | D,3 z3 |] %25

